Sources/FrostedUI/Resources/Icons.xcassets/tShirt16.imageset/t-shirt-16.svg

<svg width="16" height="16" viewBox="0 0 16 16" fill="none" xmlns="http://www.w3.org/2000/svg" data-fui-icon="true">
  <path
    d="M9.95911 1.08893C10.1736 0.974255 10.431 0.970367 10.6486 1.07916L15.2159 3.36334C15.8183 3.66491 16.0738 4.38965 15.7931 5.00201L14.7413 7.29401C14.4823 7.8585 13.8478 8.14702 13.2521 7.97174L13.0001 7.89752V13.7501C13.0001 14.4402 12.4403 14.9998 11.7501 15.0001H4.25012C3.55991 14.9999 3.00016 14.4403 3.00012 13.7501V7.89752L2.74915 7.97174C2.1533 8.14733 1.51903 7.85852 1.25989 7.29401L0.20813 5.00201C-0.0728673 4.38939 0.182419 3.66477 0.785278 3.36334L5.35266 1.07916L5.43567 1.04401C5.63361 0.97339 5.85438 0.988455 6.04211 1.08893C6.25584 1.20359 6.40113 1.41477 6.43176 1.65533C6.43276 1.66145 6.43535 1.67312 6.4386 1.68951C6.44557 1.72456 6.4583 1.78015 6.47864 1.84869C6.52022 1.98873 6.58998 2.17049 6.70227 2.34576C6.90923 2.66861 7.26737 2.99998 8.00012 3.00006C8.73311 2.99993 9.09205 2.66873 9.29895 2.34576C9.41124 2.17045 9.48101 1.98872 9.52258 1.84869C9.54292 1.78012 9.55567 1.72452 9.56262 1.68951C9.56604 1.67228 9.56756 1.66017 9.56848 1.65436C9.56889 1.65181 9.56946 1.65045 9.56946 1.65045C9.60145 1.41166 9.74645 1.20274 9.95911 1.08893ZM10.7521 2.80768C10.698 2.91962 10.6366 3.03727 10.5616 3.15436C10.128 3.83126 9.32909 4.49992 8.00012 4.50006C6.67122 4.49997 5.87327 3.8312 5.43958 3.15436C5.3645 3.03716 5.3023 2.91972 5.24817 2.80768L1.672 4.59576L2.53235 6.47174L3.53821 6.17584C3.76476 6.1092 4.01015 6.15269 4.19934 6.29401C4.3885 6.43562 4.50012 6.65926 4.50012 6.89557V13.5001H11.5001V6.89557C11.5001 6.65913 11.6116 6.4356 11.8009 6.29401C11.9901 6.15262 12.2354 6.10916 12.462 6.17584L13.4679 6.47174L14.3282 4.59576L10.7521 2.80768Z"
    fill="currentColor"
  />
</svg>

<svg xmlns="http://www.w3.org/2000/svg" width="16" height="16" fill="none" data-fui-icon="true" viewBox="0 0 16 16"><path fill="currentColor" d="M9.96 1.089a.75.75 0 0 1 .689-.01l4.567 2.284a1.25 1.25 0 0 1 .577 1.639l-1.052 2.292a1.25 1.25 0 0 1-1.489.678L13 7.898v5.852c0 .69-.56 1.25-1.25 1.25h-7.5C3.56 15 3 14.44 3 13.75V7.898l-.25.074a1.25 1.25 0 0 1-1.49-.678L.208 5.002a1.25 1.25 0 0 1 .577-1.639L5.353 1.08l.083-.035a.75.75 0 0 1 .996.611q0 .01.007.035.01.054.04.159c.041.14.111.321.223.497C6.91 2.669 7.267 3 8 3S9.092 2.67 9.3 2.346a2 2 0 0 0 .264-.656l.005-.036.001-.004a.75.75 0 0 1 .39-.561m.792 1.719q-.08.17-.19.346C10.128 3.831 9.329 4.5 8 4.5s-2.127-.669-2.56-1.346a3 3 0 0 1-.192-.346L1.672 4.596l.86 1.876 1.006-.296a.75.75 0 0 1 .962.72V13.5h7V6.896a.752.752 0 0 1 .962-.72l1.006.296.86-1.876z"/></svg>
